src/app/icon.svg

<svg xmlns="http://www.w3.org/2000/svg" viewBox="0 0 4800 4800">
  <rect width="4800" height="4800" rx="240" ry="240" style="fill: #fff" />
  <path
    d="M100 1674h326l448 1045h1l289-759 76-200 24-62c3-8 4-19 10-24h272l270 707-159 375h-1l-236-627h-21l-375 1000H723L100 1674Zm2347 0h344l-663 1455h-319l-12-29 650-1426Zm626 0h347l663 1455h-343l-490-1078-1 1-355 776 365-3 131 304h-978l661-1455Zm651 0h340l111 242h-344l-107-242Zm212 471h314c9 0 23-2 30 1l447 983h-343l-448-984Z"
    style="fill: #3c3c3c; fill-rule: evenodd"
  />
</svg>

<svg id="icon" viewBox="0 0 4800 4800" xmlns="http://www.w3.org/2000/svg">
  <rect style="fill: white" x="0" y="0" width="4800" height="4800" rx="240" ry="240"/>
  <path style="fill: #3c3c3c; fill-rule: evenodd" d="M 100 1674 L 426 1674 L 874 2719 C 874 2719 874 2719 875 2719 L 1164 1960 C 1190 1893 1215 1827 1240 1760 C 1248 1739 1256 1719 1264 1698 C 1267 1690 1268 1679 1274 1674 L 1546 1674 C 1636 1910 1726 2146 1816 2381 C 1763 2506 1710 2631 1657 2756 L 1656 2756 C 1578 2547 1499 2338 1420 2129 L 1399 2129 C 1274 2462 1149 2796 1024 3129 L 723 3129 L 100 1674 Z M 2447 1674 L 2791 1674 C 2570 2159 2349 2644 2128 3129 L 1809 3129 C 1805 3119 1801 3110 1797 3100 C 2013 2625 2230 2149 2447 1674 Z M 3073 1674 L 3420 1674 C 3641 2159 3862 2644 4083 3129 L 3740 3129 C 3576 2770 3413 2410 3250 2051 C 3249 2051 3249 2051 3249 2052 C 3130 2310 3012 2569 2894 2828 L 3259 2825 C 3303 2926 3346 3028 3390 3129 L 2412 3129 L 2412 3129 C 2633 2644 2853 2159 3073 1674 Z M 3724 1674 L 4064 1674 L 4175 1916 L 3831 1916 C 3795 1835 3760 1755 3724 1674 Z M 3936 2145 L 4250 2145 C 4259 2145 4273 2143 4280 2146 C 4429 2473 4578 2801 4727 3129 L 4384 3129 C 4235 2801 4085 2473 3936 2145 Z"/>
</svg>
